X: 1
T: Sweet Rebecca
C: Terry Traub (C) 2004
C: composed on January 8, 2004, for my sweet wife Rebecca Pomerantz
R: Waltz
M: 3/4
K: D
L: 1/4
|: A|"D"A2 d|"Bm"d2 d|"Em"e > f g|"A"a2 A|"D"A2 d|"Bm"d2 d|"Em"e > f g|"A"a2 a|
"Em"g > f e|"A"a2 a|"G"g > f e|"A"a2 g|"D"f > e d|"A"e > d c| "D"d3-|d2 :|
|: A|"Em"B2 e|e > f g|"A"f2 e|"D"a2 a|"Em"B2 e|e > f g|"A"f2 e|"D"d2 c|
"Em"B2 e|"G"e > f g|"A"f2 e|"D"a2 a|"G"b2 g|"Em"e f g|"A"f2 e|"D"d2 :|